src/assets/images/user.svg

<svg width="14" height="14" viewBox="0 0 14 14" fill="none" xmlns="http://www.w3.org/2000/svg">
<path d="M6.71277 1C4.82272 1 3.28503 2.53768 3.28503 4.42773C3.28503 6.31779 4.82272 7.85547 6.71277 7.85547C8.60282 7.85547 10.1405 6.31779 10.1405 4.42773C10.1405 2.53768 8.60282 1 6.71277 1Z" fill="#BED8E8"/>
<path d="M10.9775 10.0948C10.0391 9.14194 8.79503 8.61719 7.47449 8.61719H5.95105C4.63053 8.61719 3.38644 9.14194 2.44801 10.0948C1.51416 11.043 0.999878 12.2946 0.999878 13.6191C0.999878 13.8295 1.1704 14 1.38074 14H12.0448C12.2551 14 12.4257 13.8295 12.4257 13.6191C12.4257 12.2946 11.9114 11.043 10.9775 10.0948Z" fill="#BED8E8"/>
</svg>

<svg width="14" height="14" fill="none" xmlns="http://www.w3.org/2000/svg"><path d="M6.713 1a3.432 3.432 0 00-3.428 3.428 3.432 3.432 0 003.428 3.427 3.432 3.432 0 003.427-3.427A3.432 3.432 0 006.713 1zm4.264 9.095a4.886 4.886 0 00-3.503-1.478H5.951c-1.32 0-2.565.525-3.503 1.478A4.995 4.995 0 001 13.619c0 .21.17.381.38.381h10.665c.21 0 .38-.17.38-.38a4.995 4.995 0 00-1.448-3.525z" fill="#BED8E8"/></svg>
